public_html/images/ico/location-pin.svg

<svg xmlns="http://www.w3.org/2000/svg" width="239" height="331" viewBox="0 0 239 331"><path fill="#D9426B" fill-rule="evenodd" d="M119.441.52C53.359.52 0 53.879 0 119.961 0 143 7.359 165 17.602 183.079l77.839 134.722c4.879 8.797 14.719 13.199 24 13.199 9.278 0 18.637-4.402 24-13.199l77.84-134.64c10.321-18.082 17.598-39.68 17.598-63.121C238.879 53.961 185.52.52 119.441.52zm0 154.719c-24 0-43.601-19.598-43.601-43.598S95.441 68.04 119.441 68.04s43.598 19.601 43.598 43.601c0 24.078-19.598 43.598-43.598 43.598z"/></svg>

<svg xmlns="http://www.w3.org/2000/svg" width="239" height="331" viewBox="0 0 239 331">
  <path fill="#D9426B" fill-rule="evenodd" d="M119.441,0.52 L119.441,0.52 C53.359,0.52 0,53.879 0,119.961 C0,143 7.359,165 17.602,183.079 L95.441,317.801 C100.32,326.598 110.16,331 119.441,331 C128.719,331 138.078,326.598 143.441,317.801 L221.281,183.161 C231.602,165.079 238.879,143.481 238.879,120.04 C238.879,53.961 185.52,0.52 119.441,0.52 Z M119.441,155.239 C95.441,155.239 75.84,135.641 75.84,111.641 C75.84,87.641 95.441,68.04 119.441,68.04 C143.441,68.04 163.039,87.641 163.039,111.641 C163.039,135.719 143.441,155.239 119.441,155.239 Z"/>
</svg>
